!!!OTL: MAG AUCH DIE LIEBE WEINEN
!!!ARE: Europa, Mitteleuropa, Deutschland
!!!SCT: F1053
!!!YEM: Copyright 1995, estate of Helmut Schaffrath.
**kern
*ICvox
*Ivox
*M4/4
*k[b-e-a-d-]
*A-:
{4e-
=1
4.a-
8a-
4g
4a-
=2
4.an
8b-
4b-}
{4e-
=3
[2ee-
8ee-]
8cc
8.b-
16dd-
=4
2cc
4r}
{4a-
=5
4.ff
8ff
4ee-
4ee-
=6
2.ddn}
{4dd-
=7
4cc
4b-
4a-
8g
8b-
=8
4.b-
8a-
4a-}
==
!!!AGN: Trost - Lied, religioes, Pilger
!!!ONB: ESAC (Essen Associative Code) Database: FINK
!!!AMT: simple quadruple
!!!AIN: vox
!!!EED: Helmut Schaffrath
!!!EEV: 1.0
*-
